!!!OTL: Skip to My Lou
!!!COM: unknown
!!!ODT: unknown
!!!YOR: The Folksong Fake Book
!!!YOY: 2000
!!!AST: Folk song
!!!YEC: Brian Luke, 2001
**kern	**harm
*k[]	*k[]
*M2/4	*M2/4
*C:	*C:
*>A	*>A
=1	=1
4e	I
4c	.
=2	=2
8e	.
16e	.
16e	.
4g	.
=3	=3
4d	V7
4B	.
=4	=4
8d	.
16d	.
16d	.
4f	.
=5	=5
4e	I
4c	.
=6	=6
8e	.
16e	.
16e	.
4g	.
=7	=7
8d	V7
16e	.
16f	.
8e	.
8d	.
=8	=8
4c	I;
4c	.
*-	*-
